X:27031
T: Lady Storment's Strathspey
C: Duncan MacKercher
R: strathspey
B: RSCDS 27-3
M: C
L: 1/8
%--------------------
K: A
E \
| "A"A2 A>B "F#m"c>B A>c \
| "Bm"f>e d>c "E7"d/c/B/A/ G>B \
| "A"A>A A>B "F#m"c>d e>c \
| "Bm"F>B "E7"A/G/F/E/ "A"A3 ||
E \
| "A"A2 A>B "F#m"c>B A>c \
| "Bm"f>e d>c "E7"d/c/B/A/ G>B \
| "A"A,>C E>A "D"(3dfd "A"cec \
| "E7"d/c/B/A/ G>B "A"A3 |]
e \
| "A"A<A a>e "F#m"c>B A>c \
| "Bm"f>e d>c "E7"d/c/B/A/ G>B \
| "A"A<A a>e c>d e>c \
| "Bm"F>B "E7"A/G/F/E/ "A"A3 ||
e \
| "A"A<A a>e "F#m"c>B A>c \
| "Bm"f>e d>c "E7"d/c/B/A/ G>B \
| "A"((3Ace) ((3aec) "D"((3fdB) "A/C#"((3ecA) \
| "Bm"d/c/B/A/ "E7"G>B "A"A3 |]
